assets/images/logo_colors_bg.svg

<svg fill="none" height="70" viewBox="0 0 264 70" width="264" xmlns="http://www.w3.org/2000/svg" xmlns:xlink="http://www.w3.org/1999/xlink"><linearGradient id="a" gradientUnits="userSpaceOnUse" x1="148.498" x2="82.8495" y1="56.9615" y2="-45.3067"><stop offset="0" stop-color="#26b5c5"/><stop offset="1" stop-color="#5dd6a1"/></linearGradient><path d="m249.396 3.17738h13.979v-2.748543h-30.878v2.748543h13.979v40.03902h2.94v-40.03902zm-46.336 0h10.552c8.372 0 15.381 3.72321 15.381 12.28072 0 8.616-7.028 12.2807-15.381 12.2807h-10.552zm-2.92-2.748543v42.787563h2.94v-12.7096h10.747c4.769 0 7.261.8577 10.98 6.6667l3.913 6.0429h3.368l-4.575-6.9591c-2.628-4.0936-4.886-5.9844-7.378-6.8421 6.833-1.7739 11.778-6.3548 11.778-13.9376 0-9.84408-8.118-15.029265-18.437-15.029265h-13.336zm-31.014 19.746563v-16.99802h23.382v-2.748543h-26.302v42.787563h26.302v-2.7486h-23.382v-17.6023h22.214v-2.6901zm-25.271-20.1754c-7.32 0-14.153 4.46394-14.153 11.5595 0 5.8674 4.03 8.9863 12.81 10.1364l5.257.7407c6.95.9162 10.318 3.5478 10.318 8.9864 0 5.9259-5.743 9.4737-12.324 9.4737h-.37c-7.748 0-12.888-3.4893-14.893-8.6745l-1.889 1.7739c2.375 5.809 8.294 9.6491 16.782 9.6491h.37c8.119 0 15.264-4.7563 15.264-12.2222 0-7.271-4.458-10.6433-13.005-11.7349l-5.257-.7407c-7.32-.9747-10.124-3.2359-10.124-7.4659 0-5.69203 5.802-8.73297 11.234-8.73297h.74c5.198 0 10.143 2.14425 13.005 6.17934l1.888-1.77388c-3.173-4.58089-8.78-7.15399-14.893-7.15399z" fill="url(#a)"/><path d="m110.642 58.7914h-1.461v9.4737h.857l5.003-6.6862v6.6862h1.461v-9.4737h-.857l-5.003 6.6862zm-2.726 0h-6.989v1.384h2.745v8.0897h1.46v-8.0897h2.764v-1.384zm-13.3363 1.384h1.6938c1.4212 0 2.6867.6823 2.6867 2.1833 0 1.5594-1.2655 2.1832-2.6867 2.1832h-1.6938zm1.5964-1.384h-3.0566v9.4737h1.4602v-2.3587h1.5964c2.531 0 4.1659-1.423 4.1659-3.5477 0-2.1248-1.6349-3.5673-4.1659-3.5673zm-31.8121 3.4893c0-1.4425 1.1681-2.1053 2.5893-2.1053h1.7912v4.23h-1.7912c-1.4212 0-2.5893-.6237-2.5893-2.1247zm-.6231 4.6394-.8761 1.345h1.6549l.6814-1.0916c.7788-1.1696 1.1097-1.384 2.0637-1.4035h1.4797v2.4951h1.4601v-9.4737h-3.115c-2.531 0-4.0885 1.423-4.0885 3.4893 0 1.501.8567 2.5536 2.2195 3.0215-.4673.2339-.9151.7017-1.4797 1.6179zm-7.0477-2.1638 1.3434-3.2943 1.3433 3.2943zm.9151-5.9649-3.8938 9.4737h1.5964l.8566-2.1247h3.6797l.8566 2.1247h1.6159l-3.8548-9.4737zm-9.5982 1.384h1.6938c1.4212 0 2.6867.6823 2.6867 2.1833 0 1.5594-1.2655 2.1832-2.6867 2.1832h-1.6938zm1.577-1.384h-3.0566v9.4737h1.4601v-2.3587h1.5965c2.5309 0 4.1663-1.423 4.1663-3.5477 0-2.1248-1.6354-3.5673-4.1663-3.5673zm-4.4584 0h-6.9893v1.384h2.7645v8.0897h1.4602v-8.0897h2.7646zm-16.0034 4.7369c0 2.6705 2.1415 4.8343 4.8088 4.8343 1.4017 0 2.6672-.6043 3.5628-1.5595l-.954-.8772c-.6814.6823-1.5964 1.0721-2.6283 1.0721-1.869 0-3.3486-1.4424-3.3486-3.4502s1.4796-3.4503 3.3486-3.4503c1.0319 0 1.9469.3898 2.6283 1.0721l.954-.8772c-.8956-.9552-2.1611-1.5595-3.5628-1.5595-2.6673-.0194-4.8088 2.1443-4.8088 4.7954zm-1.6549-4.7369h-1.4601v9.4737h1.4601zm-8.2548 4.9903h2.5115c1.246 0 1.7911.5653 1.7911 1.5594 0 .9747-.4672 1.54-1.7911 1.54h-2.5115zm0-4.9903h-1.4602v9.4737h3.9328c2.2389 0 3.1929-1.1696 3.1929-2.924 0-1.7738-1.0514-2.9239-3.1929-2.9239h-2.492v-3.6258zm-8.6831 4.9903h2.5699c1.246 0 1.7911.5653 1.7911 1.5594 0 .9747-.4672 1.54-1.7911 1.54h-2.5699zm4.7115-4.9903h-6.1522v9.4737h4.0106c2.2389 0 3.1929-1.1696 3.1929-2.924 0-1.7738-1.0319-2.9239-3.1929-2.9239h-2.5504v-2.2418h4.692zm61.6579 4.7369c0-2.0078 1.4797-3.4503 3.3487-3.4503 1.0318 0 1.9469.3898 2.6283 1.0721l.9539-.8772c-.8955-.9552-2.161-1.5595-3.5628-1.5595-2.6672 0-4.8088 2.1638-4.8088 4.8344 0 2.6705 2.1416 4.8343 4.8088 4.8343 1.4018 0 2.6673-.6043 3.5628-1.5595l-.9539-.8772c-.6814.6823-1.5965 1.0721-2.6283 1.0721-1.8885-.0389-3.3487-1.4619-3.3487-3.4892zm14.6017-4.7369h-6.1522v9.4737h6.1522v-1.384h-4.692v-2.7096h4.361v-1.384h-4.361v-2.6315h4.692zm39.2884 4.2495c0 1.462-1.09 2.5147-2.453 2.5147-1.383 0-2.453-1.0527-2.453-2.5147s1.09-2.5341 2.453-2.5341 2.453 1.0721 2.453 2.5341zm-6.405 0c0 1.462-1.091 2.5147-2.454 2.5147-1.382 0-2.453-1.0527-2.453-2.5147s1.091-2.5341 2.453-2.5341c1.383 0 2.454 1.0721 2.454 2.5341zm7.845 0c0-2.1832-1.518-3.8986-3.757-3.8986-1.129 0-2.103.5848-2.609 1.4035v-1.7349h-1.46v1.7544c-.506-.8382-1.48-1.423-2.609-1.423-2.258 0-3.777 1.7349-3.777 3.8986 0 2.1833 1.519 3.8987 3.777 3.8987 1.129 0 2.103-.5653 2.609-1.384v2.7095h1.46v-2.7095c.506.8187 1.48 1.384 2.609 1.384 2.219 0 3.757-1.7154 3.757-3.8987zm7.36 5.2242h1.46v-9.4737h-.857l-5.003 6.6862v-6.6862h-1.46v9.4737h.856l5.004-6.6862zm7.885-4.8343c.331-.1754.642-.4873 1.187-1.2866l2.142-3.3333h-1.655l-1.83 2.885c-.526.7992-.759 1.0916-1.558 1.0916h-1.09v-3.9571h-1.46v9.4737h1.46v-4.0936h1.207c.818 0 1.032.2729 1.558 1.0917l1.947 3.0214h1.654l-2.238-3.4893c-.604-.9552-.916-1.2865-1.324-1.4035zm9.715 1.3255h-2.668l1.344-3.2943zm1.343 3.5088h1.596l-3.854-9.4737h-.857l-3.894 9.4737h1.616l.857-2.1247h3.679zm9.89 1.7349h1.46v-3.1189h-1.246v-8.0897h-1.46v8.0897h-4.302v-8.0897h-1.461v9.4737h7.009zm8.566-1.7349h1.461v-9.4737h-.857l-5.004 6.6862v-6.6862h-1.46v9.4737h.857l5.003-6.6862zm8.625-3.8597h-1.791c-1.421 0-2.589-.6432-2.589-2.1247 0-1.4425 1.168-2.1053 2.589-2.1053h1.791zm0 3.8597h1.46v-9.4737h-3.115c-2.531 0-4.088 1.423-4.088 3.4893 0 1.501.856 2.5536 2.219 3.0215-.467.2339-.895.7017-1.479 1.5984l-.876 1.345h1.654l.682-1.0916c.759-1.1696 1.11-1.384 2.064-1.4035h1.479zm10.65-8.0897h2.764v-1.384h-6.989v1.384h2.764v8.0897h1.461zm11.525 3.3529c0 2.0078-1.479 3.4503-3.368 3.4503-1.869 0-3.349-1.4425-3.349-3.4503s1.48-3.4503 3.349-3.4503c1.889 0 3.368 1.4425 3.368 3.4503zm1.46 0c0-2.6706-2.161-4.8343-4.828-4.8343s-4.809 2.1637-4.809 4.8343c0 2.6705 2.142 4.8343 4.809 4.8343s4.828-2.1638 4.828-4.8343zm7.418 1.9298c0 .7992-.428 1.4425-1.713 1.4425h-2.57v-2.885h2.57c1.207-.0195 1.713.6238 1.713 1.4425zm-.428-3.9961c0 .6238-.312 1.2865-1.636 1.2865h-2.219v-2.5731h2.219c1.402 0 1.636.6823 1.636 1.2866zm.039 1.8518c.856-.3119 1.343-1.0331 1.343-2.0467 0-1.0137-.467-2.4757-3.173-2.4757h-3.544v9.4737h3.738c2.551 0 3.407-1.1696 3.407-2.6706 0-1.1696-.662-2.0467-1.771-2.2807zm7.943 1.4425h-2.667l1.343-3.2943zm1.343 3.5088h1.616l-3.855-9.4737h-.856l-3.894 9.4737h1.616l.857-2.1247h3.679zm8.625-5.9064c0 1.5594-1.265 2.1832-2.687 2.1832h-1.693v-4.3665h1.693c1.402 0 2.687.6823 2.687 2.1833zm1.363 0c0-2.1248-1.636-3.5478-4.166-3.5478h-3.057v9.4737h1.46v-2.3587h1.597c2.53-.0195 4.166-1.423 4.166-3.5672zm9.209 1.1696c0 2.0078-1.48 3.4503-3.368 3.4503-1.869 0-3.349-1.4425-3.349-3.4503s1.48-3.4503 3.349-3.4503c1.888 0 3.368 1.4425 3.368 3.4503zm1.46 0c0-2.6706-2.161-4.8343-4.828-4.8343-2.668 0-4.809 2.1637-4.809 4.8343 0 2.6705 2.141 4.8343 4.809 4.8343 2.667 0 4.828-2.1638 4.828-4.8343zm7.417 1.9298c0 .7992-.428 1.4425-1.713 1.4425h-2.589v-2.885h2.589c1.227-.0195 1.713.6238 1.713 1.4425zm-.428-3.9961c0 .6238-.311 1.2865-1.635 1.2865h-2.239v-2.5731h2.239c1.402 0 1.635.6823 1.635 1.2866zm1.382-.1949c0-1.0137-.467-2.4757-3.173-2.4757h-3.543v9.4737h3.738c2.55 0 3.407-1.1696 3.407-2.6706 0-1.1696-.662-2.0662-1.791-2.2807.876-.3119 1.362-1.0331 1.362-2.0467z" fill="url(#a)"/><g fill="#243444"><path d="m39.736.428837-14.7185 28.654963v14.1131h-10.3769v-14.1131l-14.6406-28.654963h11.7787l8.0601 15.769963 8.1185-15.769963z"/><path d="m120.045.428837v25.126763c0 12.5926-8.897 18.0896-17.269 18.0896-8.3519 0-17.2687-5.497-17.2687-18.0896v-25.126763h10.377v24.814863c0 7.3294 4.1467 8.5575 6.8917 8.5575s6.892-1.2281 6.892-8.5575v-24.814863z"/><path clip-rule="evenodd" d="m80.4454 21.8129c0-12.04683-9.7734-21.8129-21.7857-21.8129-12.0317 0-21.7272 9.78557-21.7272 21.8129 0 12.1052 9.7149 21.8128 21.7272 21.8128 12.0123.0195 21.7857-9.7076 21.7857-21.8128zm-21.7857 11.9883c6.4053 0 11.4088-4.6004 11.4088-11.9883 0-7.3295-5.0035-12.02733-11.4088-12.04683-6.3468 0-11.3503 4.71733-11.3503 12.04683 0 7.4074 5.0035 11.9883 11.3503 11.9883z" fill-rule="evenodd"/></g></svg>

<svg width="264" height="70" viewBox="0 0 264 70" fill="none" xmlns="http://www.w3.org/2000/svg">
<path d="M249.396 3.17738H263.375V0.428837H232.497V3.17738H246.476V43.2164H249.416V3.17738H249.396ZM203.06 3.17738H213.612C221.984 3.17738 228.993 6.90059 228.993 15.4581C228.993 24.0741 221.965 27.7388 213.612 27.7388H203.06V3.17738ZM200.14 0.428837V43.2164H203.08V30.5068H213.827C218.596 30.5068 221.088 31.3645 224.807 37.1735L228.72 43.2164H232.088L227.513 36.2573C224.885 32.1637 222.627 30.2729 220.135 29.4152C226.968 27.6413 231.913 23.0604 231.913 15.4776C231.913 5.63352 223.795 0.448335 213.476 0.448335H200.14V0.428837ZM169.126 20.1754V3.17738H192.508V0.428837H166.206V43.2164H192.508V40.4678H169.126V22.8655H191.34V20.1754H169.126ZM143.855 0C136.535 0 129.702 4.46394 129.702 11.5595C129.702 17.4269 133.732 20.5458 142.512 21.6959L147.769 22.4366C154.719 23.3528 158.087 25.9844 158.087 31.423C158.087 37.3489 152.344 40.8967 145.763 40.8967H145.393C137.645 40.8967 132.505 37.4074 130.5 32.2222L128.611 33.9961C130.986 39.8051 136.905 43.6452 145.393 43.6452H145.763C153.882 43.6452 161.027 38.8889 161.027 31.423C161.027 24.152 156.569 20.7797 148.022 19.6881L142.765 18.9474C135.445 17.9727 132.641 15.7115 132.641 11.4815C132.641 5.78947 138.443 2.74853 143.875 2.74853H144.615C149.813 2.74853 154.758 4.89278 157.62 8.92787L159.508 7.15399C156.335 2.5731 150.728 0 144.615 0H143.855Z" fill="url(#paint0_linear_1417_4358)"/>
<path d="M110.642 58.7914H109.181V68.2651H110.038L115.041 61.5789V68.2651H116.502V58.7914H115.645L110.642 65.4776V58.7914ZM107.916 58.7914H100.927V60.1754H103.672V68.2651H105.132V60.1754H107.896V58.7914H107.916ZM94.5797 60.1754H96.2735C97.6947 60.1754 98.9602 60.8577 98.9602 62.3587C98.9602 63.9181 97.6947 64.5419 96.2735 64.5419H94.5797V60.1754ZM96.1761 58.7914H93.1195V68.2651H94.5797V65.9064H96.1761C98.7071 65.9064 100.342 64.4834 100.342 62.3587C100.342 60.2339 98.7071 58.7914 96.1761 58.7914ZM64.364 62.2807C64.364 60.8382 65.5321 60.1754 66.9533 60.1754H68.7445V64.4054H66.9533C65.5321 64.4054 64.364 63.7817 64.364 62.2807ZM63.7409 66.9201L62.8648 68.2651H64.5197L65.2011 67.1735C65.9799 66.0039 66.3108 65.7895 67.2648 65.77H68.7445V68.2651H70.2046V58.7914H67.0896C64.5586 58.7914 63.0011 60.2144 63.0011 62.2807C63.0011 63.7817 63.8578 64.8343 65.2206 65.3022C64.7533 65.5361 64.3055 66.0039 63.7409 66.9201ZM56.6932 64.7563L58.0366 61.462L59.3799 64.7563H56.6932ZM57.6083 58.7914L53.7145 68.2651H55.3109L56.1675 66.1404H59.8472L60.7038 68.2651H62.3197L58.4649 58.7914H57.6083ZM48.0101 60.1754H49.7039C51.1251 60.1754 52.3906 60.8577 52.3906 62.3587C52.3906 63.9181 51.1251 64.5419 49.7039 64.5419H48.0101V60.1754ZM49.5871 58.7914H46.5305V68.2651H47.9906V65.9064H49.5871C52.118 65.9064 53.7534 64.4834 53.7534 62.3587C53.7534 60.2339 52.118 58.7914 49.5871 58.7914ZM45.1287 58.7914H38.1394V60.1754H40.9039V68.2651H42.3641V60.1754H45.1287V58.7914ZM29.1253 63.5283C29.1253 66.1988 31.2668 68.3626 33.9341 68.3626C35.3358 68.3626 36.6013 67.7583 37.4969 66.8031L36.5429 65.9259C35.8615 66.6082 34.9465 66.998 33.9146 66.998C32.0456 66.998 30.566 65.5556 30.566 63.5478C30.566 61.54 32.0456 60.0975 33.9146 60.0975C34.9465 60.0975 35.8615 60.4873 36.5429 61.1696L37.4969 60.2924C36.6013 59.3372 35.3358 58.7329 33.9341 58.7329C31.2668 58.7135 29.1253 60.8772 29.1253 63.5283ZM27.4704 58.7914H26.0103V68.2651H27.4704V58.7914ZM19.2156 63.7817H21.7271C22.9731 63.7817 23.5182 64.347 23.5182 65.3411C23.5182 66.3158 23.051 66.8811 21.7271 66.8811H19.2156V63.7817ZM19.2156 58.7914H17.7554V68.2651H21.6882C23.9271 68.2651 24.8811 67.0955 24.8811 65.3411C24.8811 63.5673 23.8297 62.4172 21.6882 62.4172H19.1962V58.7914H19.2156ZM10.5325 63.7817H13.1024C14.3484 63.7817 14.8935 64.347 14.8935 65.3411C14.8935 66.3158 14.4263 66.8811 13.1024 66.8811H10.5325V63.7817ZM15.244 58.7914H9.0918V68.2651H13.1024C15.3413 68.2651 16.2953 67.0955 16.2953 65.3411C16.2953 63.5673 15.2634 62.4172 13.1024 62.4172H10.552V60.1754H15.244V58.7914ZM76.9019 63.5283C76.9019 61.5205 78.3816 60.078 80.2506 60.078C81.2824 60.078 82.1975 60.4678 82.8789 61.1501L83.8328 60.2729C82.9373 59.3177 81.6718 58.7134 80.27 58.7134C77.6028 58.7134 75.4612 60.8772 75.4612 63.5478C75.4612 66.2183 77.6028 68.3821 80.27 68.3821C81.6718 68.3821 82.9373 67.7778 83.8328 66.8226L82.8789 65.9454C82.1975 66.6277 81.2824 67.0175 80.2506 67.0175C78.3621 66.9786 76.9019 65.5556 76.9019 63.5283ZM91.5036 58.7914H85.3514V68.2651H91.5036V66.8811H86.8116V64.1715H91.1726V62.7875H86.8116V60.156H91.5036V58.7914ZM130.792 63.0409C130.792 64.5029 129.702 65.5556 128.339 65.5556C126.956 65.5556 125.886 64.5029 125.886 63.0409C125.886 61.5789 126.976 60.5068 128.339 60.5068C129.702 60.5068 130.792 61.5789 130.792 63.0409ZM124.387 63.0409C124.387 64.5029 123.296 65.5556 121.933 65.5556C120.551 65.5556 119.48 64.5029 119.48 63.0409C119.48 61.5789 120.571 60.5068 121.933 60.5068C123.316 60.5068 124.387 61.5789 124.387 63.0409ZM132.232 63.0409C132.232 60.8577 130.714 59.1423 128.475 59.1423C127.346 59.1423 126.372 59.7271 125.866 60.5458V58.8109H124.406V60.5653C123.9 59.7271 122.926 59.1423 121.797 59.1423C119.539 59.1423 118.02 60.8772 118.02 63.0409C118.02 65.2242 119.539 66.9396 121.797 66.9396C122.926 66.9396 123.9 66.3743 124.406 65.5556V68.2651H125.866V65.5556C126.372 66.3743 127.346 66.9396 128.475 66.9396C130.694 66.9396 132.232 65.2242 132.232 63.0409ZM139.592 68.2651H141.052V58.7914H140.195L135.192 65.4776V58.7914H133.732V68.2651H134.588L139.592 61.5789V68.2651ZM147.477 63.4308C147.808 63.2554 148.119 62.9435 148.664 62.1442L150.806 58.8109H149.151L147.321 61.6959C146.795 62.4951 146.562 62.7875 145.763 62.7875H144.673V58.8304H143.213V68.3041H144.673V64.2105H145.88C146.698 64.2105 146.912 64.4834 147.438 65.3022L149.385 68.3236H151.039L148.801 64.8343C148.197 63.8791 147.885 63.5478 147.477 63.4308ZM157.192 64.7563H154.524L155.868 61.462L157.192 64.7563ZM158.535 68.2651H160.131L156.277 58.7914H155.42L151.526 68.2651H153.142L153.999 66.1404H157.678L158.535 68.2651ZM168.425 70H169.885V66.8811H168.639V58.7914H167.179V66.8811H162.877V58.7914H161.416V68.2651H168.425V70ZM176.991 68.2651H178.452V58.7914H177.595L172.591 65.4776V58.7914H171.131V68.2651H171.988L176.991 61.5789V68.2651ZM185.616 64.4054H183.825C182.404 64.4054 181.236 63.7622 181.236 62.2807C181.236 60.8382 182.404 60.1754 183.825 60.1754H185.616V64.4054ZM185.616 68.2651H187.076V58.7914H183.961C181.43 58.7914 179.873 60.2144 179.873 62.2807C179.873 63.7817 180.729 64.8343 182.092 65.3022C181.625 65.5361 181.197 66.0039 180.613 66.9006L179.737 68.2456H181.391L182.073 67.154C182.832 65.9844 183.183 65.77 184.137 65.7505H185.616V68.2651ZM196.266 60.1754H199.03V58.7914H192.041V60.1754H194.805V68.2651H196.266V60.1754ZM207.791 63.5283C207.791 65.5361 206.312 66.9786 204.423 66.9786C202.554 66.9786 201.074 65.5361 201.074 63.5283C201.074 61.5205 202.554 60.078 204.423 60.078C206.312 60.078 207.791 61.5205 207.791 63.5283ZM209.251 63.5283C209.251 60.8577 207.09 58.694 204.423 58.694C201.756 58.694 199.614 60.8577 199.614 63.5283C199.614 66.1988 201.756 68.3626 204.423 68.3626C207.09 68.3626 209.251 66.1988 209.251 63.5283ZM216.669 65.4581C216.669 66.2573 216.241 66.9006 214.956 66.9006H212.386V64.0156H214.956C216.163 63.9961 216.669 64.6394 216.669 65.4581ZM216.241 61.462C216.241 62.0858 215.929 62.7485 214.605 62.7485H212.386V60.1754H214.605C216.007 60.1754 216.241 60.8577 216.241 61.462ZM216.28 63.3138C217.136 63.0019 217.623 62.2807 217.623 61.2671C217.623 60.2534 217.156 58.7914 214.45 58.7914H210.906V68.2651H214.644C217.195 68.2651 218.051 67.0955 218.051 65.5945C218.051 64.4249 217.389 63.5478 216.28 63.3138ZM224.223 64.7563H221.556L222.899 61.462L224.223 64.7563ZM225.566 68.2651H227.182L223.327 58.7914H222.471L218.577 68.2651H220.193L221.05 66.1404H224.729L225.566 68.2651ZM234.191 62.3587C234.191 63.9181 232.926 64.5419 231.504 64.5419H229.811V60.1754H231.504C232.906 60.1754 234.191 60.8577 234.191 62.3587ZM235.554 62.3587C235.554 60.2339 233.918 58.8109 231.388 58.8109H228.331V68.2846H229.791V65.9259H231.388C233.918 65.9064 235.554 64.5029 235.554 62.3587ZM244.763 63.5283C244.763 65.5361 243.283 66.9786 241.395 66.9786C239.526 66.9786 238.046 65.5361 238.046 63.5283C238.046 61.5205 239.526 60.078 241.395 60.078C243.283 60.078 244.763 61.5205 244.763 63.5283ZM246.223 63.5283C246.223 60.8577 244.062 58.694 241.395 58.694C238.727 58.694 236.586 60.8577 236.586 63.5283C236.586 66.1988 238.727 68.3626 241.395 68.3626C244.062 68.3626 246.223 66.1988 246.223 63.5283ZM253.64 65.4581C253.64 66.2573 253.212 66.9006 251.927 66.9006H249.338V64.0156H251.927C253.154 63.9961 253.64 64.6394 253.64 65.4581ZM253.212 61.462C253.212 62.0858 252.901 62.7485 251.577 62.7485H249.338V60.1754H251.577C252.979 60.1754 253.212 60.8577 253.212 61.462ZM254.594 61.2671C254.594 60.2534 254.127 58.7914 251.421 58.7914H247.878V68.2651H251.616C254.166 68.2651 255.023 67.0955 255.023 65.5945C255.023 64.4249 254.361 63.5283 253.232 63.3138C254.108 63.0019 254.594 62.2807 254.594 61.2671Z" fill="url(#paint1_linear_1417_4358)"/>
<path d="M39.736 0.428837L25.0175 29.0838V43.1969H14.6406V29.0838L0 0.428837H11.7787L19.8388 16.1988L27.9573 0.428837H39.736Z" fill="#243444"/>
<path d="M120.045 0.428837V25.5556C120.045 38.1482 111.148 43.6452 102.776 43.6452C94.4241 43.6452 85.5073 38.1482 85.5073 25.5556V0.428837H95.8843V25.2437C95.8843 32.5731 100.031 33.8012 102.776 33.8012C105.521 33.8012 109.668 32.5731 109.668 25.2437V0.428837H120.045Z" fill="#243444"/>
<path fill-rule="evenodd" clip-rule="evenodd" d="M80.4454 21.8129C80.4454 9.76607 70.672 0 58.6597 0C46.628 0 36.9325 9.78557 36.9325 21.8129C36.9325 33.9181 46.6474 43.6257 58.6597 43.6257C70.672 43.6452 80.4454 33.9181 80.4454 21.8129ZM58.6597 33.8012C65.065 33.8012 70.0685 29.2008 70.0685 21.8129C70.0685 14.4834 65.065 9.78557 58.6597 9.76607C52.3129 9.76607 47.3094 14.4834 47.3094 21.8129C47.3094 29.2203 52.3129 33.8012 58.6597 33.8012Z" fill="#243444"/>
<defs>
<linearGradient id="paint0_linear_1417_4358" x1="148.498" y1="56.9615" x2="82.8495" y2="-45.3067" gradientUnits="userSpaceOnUse">
<stop stop-color="#26B5C5"/>
<stop offset="1" stop-color="#5DD6A1"/>
</linearGradient>
<linearGradient id="paint1_linear_1417_4358" x1="148.498" y1="56.9615" x2="82.8495" y2="-45.3067" gradientUnits="userSpaceOnUse">
<stop stop-color="#26B5C5"/>
<stop offset="1" stop-color="#5DD6A1"/>
</linearGradient>
</defs>
</svg>
